exports/global-freshwater-use-over-the-long-run_v1_850x600.svg

<svg xmlns="http://www.w3.org/2000/svg" version="1.1" style="background-color:#fff;-webkit-font-smoothing:antialiased" width="850" height="600" font-family="'Helvetica Neue',Helvetica,Arial,sans-serif" font-size="18" text-rendering="optimizeLegibility"><g class="ChartTab"><g class="HeaderView"><g opacity=".8" transform="matrix(.31 0 0 .31 770 15)"><a xmlns:xlink="http://www.w3.org/1999/xlink" xlink:href="https://ourworldindata.org" target="_blank"><g><path fill="#1B2543" d="M0 0h211.2v130.1H0z"/><path fill="#E63912" d="M0 112.2h211.2v17.9H0z"/><g><path fill="none" d="M1.2 12.3h210.2v99.2H1.2z"/><path fill="#FFF" d="M37.8 32.2c0 12.7-7.7 19.4-17.1 19.4-9.7 0-16.6-7.5-16.6-18.7 0-11.7 7.3-19.3 17.1-19.3 10.1.1 16.6 7.7 16.6 18.6zm-28.6.6c0 7.9 4.3 14.9 11.8 14.9 7.5 0 11.8-6.9 11.8-15.3 0-7.3-3.8-14.9-11.8-14.9-7.9 0-11.8 7.3-11.8 15.3zM62.7 43.8c0 2.7.1 5.1.2 7.2h-4.3l-.3-4.3h-.1c-1.3 2.1-4 4.9-8.8 4.9-4.2 0-9.1-2.3-9.1-11.6V24.6h4.8v14.6c0 5 1.5 8.4 5.9 8.4 3.2 0 5.5-2.2 6.3-4.4.3-.7.4-1.6.4-2.5V24.6h4.8v19.2zM67.3 32.8c0-3.1-.1-5.8-.2-8.2h4.2l.2 5.2h.2c1.2-3.5 4.1-5.8 7.3-5.8.5 0 .9.1 1.4.2v4.5c-.5-.1-1-.2-1.6-.2-3.4 0-5.8 2.6-6.5 6.2-.1.7-.2 1.4-.2 2.2V51h-4.8V32.8zM95.4 51L86 14.2h5l4.4 18.6c1.1 4.6 2.1 9.2 2.7 12.7h.1c.6-3.7 1.8-8 3-12.8l4.9-18.5h5l4.5 18.7c1 4.4 2 8.7 2.6 12.6h.1c.8-4 1.8-8.1 3-12.7l4.9-18.5h4.9L120.6 51h-5L111 31.9c-1.1-4.7-1.9-8.3-2.4-12h-.1c-.7 3.7-1.5 7.3-2.8 12L100.4 51h-5zM154.9 37.6c0 9.8-6.8 14-13.2 14-7.2 0-12.7-5.2-12.7-13.6 0-8.8 5.8-14 13.1-14 7.7 0 12.8 5.5 12.8 13.6zm-21 .3c0 5.8 3.3 10.1 8 10.1 4.6 0 8-4.3 8-10.3 0-4.5-2.2-10.1-7.9-10.1s-8.1 5.2-8.1 10.3zM158.2 32.8c0-3.1-.1-5.8-.2-8.2h4.2l.2 5.2h.2c1.2-3.5 4.1-5.8 7.3-5.8.5 0 .9.1 1.4.2v4.5c-.5-.1-1-.2-1.6-.2-3.4 0-5.8 2.6-6.5 6.2-.1.7-.2 1.4-.2 2.2V51h-4.8V32.8zM173.5 12.3h4.8V51h-4.8V12.3zM206.5 12.3v31.9c0 2.3.1 5 .2 6.8h-4.3l-.2-4.6h-.2c-1.5 2.9-4.7 5.2-9 5.2-6.4 0-11.3-5.4-11.3-13.4-.1-8.8 5.4-14.2 11.9-14.2 4 0 6.8 1.9 8 4h.1V12.3h4.8zm-4.8 23.1c0-.6-.1-1.4-.2-2a7 7 0 00-6.9-5.6c-5 0-7.9 4.4-7.9 10.2 0 5.3 2.6 9.8 7.8 9.8 3.2 0 6.2-2.1 7.1-5.7.2-.7.2-1.3.2-2.1v-4.6zM42.8 64c.1 1.6-1.1 2.9-3.1 2.9-1.7 0-2.9-1.3-2.9-2.9 0-1.7 1.3-3 3-3 1.9 0 3 1.3 3 3zm-5.4 33.8V71.4h4.8v26.4h-4.8zM47.5 78.6c0-2.7-.1-5-.2-7.1h4.3l.3 4.4h.1c1.3-2.5 4.4-5 8.8-5 3.7 0 9.4 2.2 9.4 11.2v15.8h-4.8V82.6c0-4.3-1.6-7.8-6.1-7.8-3.2 0-5.6 2.2-6.5 4.9-.2.6-.3 1.4-.3 2.2v15.9h-4.8V78.6zM84 61.6c2.9-.4 6.3-.8 10.1-.8 6.8 0 11.7 1.6 14.9 4.6 3.3 3 5.2 7.3 5.2 13.2 0 6-1.9 10.9-5.3 14.3-3.4 3.4-9.1 5.3-16.3 5.3-3.4 0-6.2-.2-8.6-.4V61.6zm4.8 32.5c1.2.2 3 .3 4.8.3 10.2 0 15.7-5.7 15.7-15.6.1-8.7-4.9-14.2-14.9-14.2-2.5 0-4.3.2-5.6.5v29zM132.1 97.8l-.4-3.3h-.2a9.79 9.79 0 01-8.1 3.9c-5.4 0-8.1-3.8-8.1-7.6 0-6.4 5.7-9.9 15.9-9.8v-.5c0-2.2-.6-6.1-6-6.1-2.5 0-5 .8-6.9 2l-1.1-3.2c2.2-1.4 5.4-2.3 8.7-2.3 8.1 0 10.1 5.5 10.1 10.8v9.9c0 2.3.1 4.5.4 6.3h-4.3zm-.7-13.4c-5.3-.1-11.2.8-11.2 5.9 0 3.1 2.1 4.6 4.5 4.6 3.4 0 5.6-2.2 6.4-4.4.2-.5.3-1 .3-1.5v-4.6zM146.6 63.9v7.6h6.9v3.7h-6.9v14.2c0 3.3.9 5.1 3.6 5.1 1.3 0 2.2-.2 2.8-.3l.2 3.6c-.9.4-2.4.7-4.3.7-2.2 0-4-.7-5.2-2-1.4-1.4-1.9-3.8-1.9-6.9V75.1h-4.1v-3.7h4.1v-6.3l4.8-1.2zM171.4 97.8l-.4-3.3h-.2a9.79 9.79 0 01-8.1 3.9c-5.4 0-8.1-3.8-8.1-7.6 0-6.4 5.7-9.9 15.9-9.8v-.5c0-2.2-.6-6.1-6-6.1-2.5 0-5 .8-6.9 2l-1.1-3.2c2.2-1.4 5.4-2.3 8.7-2.3 8.1 0 10.1 5.5 10.1 10.8v9.9c0 2.3.1 4.5.4 6.3h-4.3zm-.7-13.4c-5.3-.1-11.2.8-11.2 5.9 0 3.1 2.1 4.6 4.5 4.6 3.4 0 5.6-2.2 6.4-4.4.2-.5.3-1 .3-1.5v-4.6z"/></g></g></a></g><a href="https://ourworldindata.org/grapher/global-freshwater-use-over-the-long-run" target="_blank"><text font-size="27" x="15" y="36.6" fill="#555"><tspan x="15" y="36.6">Global freshwater use over the long-run</tspan></text></a><text font-size="14.4" x="15" y="55.5" fill="#666"><tspan x="15" y="55.52">Global freshwater withdrawals for agriculture, industry and domestic uses since 1900, measured in cubic metres</tspan><tspan x="15" y="71.36">(m³) per year.</tspan></text></g><g class="StackedArea"><defs><clipPath id="a"><path d="M115.58 0h820v925.2h-820z"/></clipPath></defs><g class="AxisBoxView"><g class="HorizontalAxis" fill="#666" text-anchor="middle" font-size="16.2"><text x="115.6" y="556.5">1901</text><text x="226.9" y="556.5">1920</text><text x="344" y="556.5">1940</text><text x="461.1" y="556.5">1960</text><text x="578.3" y="556.5">1980</text><text x="695.4" y="556.5">2000</text><text x="777.4" y="556.5">2014</text></g><g class="VerticalAxis" fill="#666" dominant-baseline="middle" text-anchor="end" font-size="16.2"><text x="110.58" y="535.3">0 m³</text><text x="110.58" y="481.1">500 billion m³</text><text x="110.58" y="426.9">1 trillion m³</text><text x="110.58" y="372.7">1.5 trillion m³</text><text x="110.58" y="318.6">2 trillion m³</text><text x="110.58" y="264.4">2.5 trillion m³</text><text x="110.58" y="210.2">3 trillion m³</text><text x="110.58" y="156">3.5 trillion m³</text><text x="110.58" y="101.8">4 trillion m³</text></g><g class="AxisGridLines"><path stroke="#ccc" d="M115.58 535.3h661.84"/><path stroke="#ddd" stroke-dasharray="3,2" d="M115.58 481.1h661.84M115.58 426.9h661.84M115.58 372.7h661.84M115.58 318.6h661.84M115.58 264.4h661.84M115.58 210.2h661.84M115.58 156h661.84M115.58 101.8h661.84"/></g><g class="AxisGridLines" stroke="#ddd" stroke-dasharray="3,2"><path d="M226.9 535.3V93.9M344 535.3V93.9M461.1 535.3V93.9M578.3 535.3V93.9M695.4 535.3V93.9"/></g></g><g clip-path="url(#a)"><g class="HeightedLegend clickable"><g class="legendMark"><path fill="#3360a9" d="M782.42 318.05h10v2.5h-10z"/><text font-size="14.4" x="797.4" y="323.6" fill="#333"><tspan x="797.42" y="323.62">World</tspan></text></g></g><g class="Areas"><path d="M115.6 462.5l5.8-1.5 5.9 3.3 5.9-4.8 5.8-.2 5.9.5 5.8-3.7 5.9 1.2 5.8-1 5.9.8 5.8-2.6 5.9-2.3 5.9-5.3 5.8 3.2 5.9-1 5.8.9 5.9 1.2 5.8-9.8 5.9 3.3 5.9-5.3 5.8 4.5 5.9-3.1 5.8.1 5.9-2 5.8-3.8 5.9 2.9 5.9-4.8 5.8-.7 5.9-2.5 5.8 1.9 5.9 2.2 5.8-4.5 5.9 3 5.9-5.8 5.8-1.8 5.9-1.3 5.8-.8 5.9-3.4 5.8-3.6 5.9-.9 5.9-1.9 5.8.9 5.9-2.1 5.8-.4 5.9.1 5.8-3.9 5.9-.1 5.9-.6 5.8-1.1 5.9-3.5 5.8-11 5.9-5.6 5.8.6 5.9.1 5.9-5.6 5.8-3.5 5.9-12 5.8-1 5.9-6.7 5.8-12.3 5.9-1.4 5.9-7.7 5.8-9 5.9-3 5.8-16 5.9-6.6 5.8 2.4 5.9-23.4 5.9-1 5.8-.4 5.9-8 5.8-12.1 5.9-6.4 5.8-12.8 5.9 9.4 5.9-11 5.8-5.5 5.9-21.8 5.8-12.9 5.9 4 5.8 2.1 5.9-1.4 5.9 3.6 5.8-8.9 5.9-1.4 5.8-11.3 5.9-4.1 5.8-7.3 5.9-3.3 5.8 5.2 5.9-10.5 5.9 10.7 5.8-4.2 5.9-11.5 5.8 4.7 5.9 8.9 5.8-11.2 5.9-5.8 5.9-16.9 5.8-14.6 5.9-8.2 5.8 5.9 5.9 9.1 5.8-14.1 5.9 2.8 5.9-17.8 5.8-1.3 5.9 6 5.8-13.5 5.9 21.8 23.4-12.3.02 431.9H115.58" fill="#3360a9" fill-opacity=".7" class="World_0-area"/><path stroke-linecap="round" d="M115.6 462.5l5.8-1.5 5.9 3.3 5.9-4.8 5.8-.2 5.9.5 5.8-3.7 5.9 1.2 5.8-1 5.9.8 5.8-2.6 5.9-2.3 5.9-5.3 5.8 3.2 5.9-1 5.8.9 5.9 1.2 5.8-9.8 5.9 3.3 5.9-5.3 5.8 4.5 5.9-3.1 5.8.1 5.9-2 5.8-3.8 5.9 2.9 5.9-4.8 5.8-.7 5.9-2.5 5.8 1.9 5.9 2.2 5.8-4.5 5.9 3 5.9-5.8 5.8-1.8 5.9-1.3 5.8-.8 5.9-3.4 5.8-3.6 5.9-.9 5.9-1.9 5.8.9 5.9-2.1 5.8-.4 5.9.1 5.8-3.9 5.9-.1 5.9-.6 5.8-1.1 5.9-3.5 5.8-11 5.9-5.6 5.8.6 5.9.1 5.9-5.6 5.8-3.5 5.9-12 5.8-1 5.9-6.7 5.8-12.3 5.9-1.4 5.9-7.7 5.8-9 5.9-3 5.8-16 5.9-6.6 5.8 2.4 5.9-23.4 5.9-1 5.8-.4 5.9-8 5.8-12.1 5.9-6.4 5.8-12.8 5.9 9.4 5.9-11 5.8-5.5 5.9-21.8 5.8-12.9 5.9 4 5.8 2.1 5.9-1.4 5.9 3.6 5.8-8.9 5.9-1.4 5.8-11.3 5.9-4.1 5.8-7.3 5.9-3.3 5.8 5.2 5.9-10.5 5.9 10.7 5.8-4.2 5.9-11.5 5.8 4.7 5.9 8.9 5.8-11.2 5.9-5.8 5.9-16.9 5.8-14.6 5.9-8.2 5.8 5.9 5.9 9.1 5.8-14.1 5.9 2.8 5.9-17.8 5.8-1.3 5.9 6 5.8-13.5 5.9 21.8 23.4-12.3" stroke="#2B508D" stroke-opacity=".7" stroke-width=".5" fill="none" class="World_0-border"/></g></g></g><g class="SourcesFooter" fill="#777"><g class="clickable" fill="#777"><text font-size="12.6" x="15" y="581.6"><tspan x="15" y="581.58">Source: Global International Geosphere-Biosphere Programme (IGB)</tspan></text></g><text font-size="12.6" x="449.7" y="581.6"><tspan x="449.69" y="581.58"><a target="_blank" href="https://ourworldindata.org/water-access-resources-sanitation/" fill="#777">OurWorldInData.org/water-access-resources-sanitation/</a> • <a href="http://creativecommons.org/licenses/by-sa/4.0/deed.en_US" target="_blank" fill="#777">CC BY-SA</a></tspan></text></g></g></svg>

<svg xmlns="http://www.w3.org/2000/svg" version="1.1" style="font-family: 'Helvetica Neue', Helvetica, Arial, sans-serif; font-size: 18px; background-color: white; text-rendering: optimizeLegibility; -webkit-font-smoothing: antialiased;" width="850" height="600"><g class="ChartTab"><g class="HeaderView"><g opacity="0.8" transform="translate(770, 15) scale(0.31)"><a xmlns:xlink="http://www.w3.org/1999/xlink" xlink:href="https://ourworldindata.org" target="_blank"><g><rect x="0" y="0" fill="#1B2543" width="211.2" height="130.1"/><rect x="0" y="112.2" fill="#E63912" width="211.2" height="17.9"/><g><rect x="1.2" y="12.3" fill="none" width="210.2" height="99.2"/><path fill="#FFFFFF" d="M37.8,32.2c0,12.7-7.7,19.4-17.1,19.4c-9.7,0-16.6-7.5-16.6-18.7c0-11.7,7.3-19.3,17.1-19.3 C31.3,13.7,37.8,21.3,37.8,32.2z M9.2,32.8c0,7.9,4.3,14.9,11.8,14.9c7.5,0,11.8-6.9,11.8-15.3c0-7.3-3.8-14.9-11.8-14.9 C13.1,17.5,9.2,24.8,9.2,32.8z"/><path fill="#FFFFFF" d="M62.7,43.8c0,2.7,0.1,5.1,0.2,7.2h-4.3l-0.3-4.3h-0.1c-1.3,2.1-4,4.9-8.8,4.9c-4.2,0-9.1-2.3-9.1-11.6 V24.6h4.8v14.6c0,5,1.5,8.4,5.9,8.4c3.2,0,5.5-2.2,6.3-4.4c0.3-0.7,0.4-1.6,0.4-2.5V24.6h4.8V43.8z"/><path fill="#FFFFFF" d="M67.3,32.8c0-3.1-0.1-5.8-0.2-8.2h4.2l0.2,5.2h0.2c1.2-3.5,4.1-5.8,7.3-5.8c0.5,0,0.9,0.1,1.4,0.2v4.5 c-0.5-0.1-1-0.2-1.6-0.2c-3.4,0-5.8,2.6-6.5,6.2c-0.1,0.7-0.2,1.4-0.2,2.2V51h-4.8V32.8z"/><path fill="#FFFFFF" d="M95.4,51l-9.4-36.8h5l4.4,18.6c1.1,4.6,2.1,9.2,2.7,12.7h0.1c0.6-3.7,1.8-8,3-12.8l4.9-18.5h5l4.5,18.7 c1,4.4,2,8.7,2.6,12.6h0.1c0.8-4,1.8-8.1,3-12.7l4.9-18.5h4.9L120.6,51h-5L111,31.9c-1.1-4.7-1.9-8.3-2.4-12h-0.1 c-0.7,3.7-1.5,7.3-2.8,12L100.4,51H95.4z"/><path fill="#FFFFFF" d="M154.9,37.6c0,9.8-6.8,14-13.2,14c-7.2,0-12.7-5.2-12.7-13.6c0-8.8,5.8-14,13.1-14 C149.8,24,154.9,29.5,154.9,37.6z M133.9,37.9c0,5.8,3.3,10.1,8,10.1c4.6,0,8-4.3,8-10.3c0-4.5-2.2-10.1-7.9-10.1 C136.3,27.6,133.9,32.8,133.9,37.9z"/><path fill="#FFFFFF" d="M158.2,32.8c0-3.1-0.1-5.8-0.2-8.2h4.2l0.2,5.2h0.2c1.2-3.5,4.1-5.8,7.3-5.8c0.5,0,0.9,0.1,1.4,0.2v4.5 c-0.5-0.1-1-0.2-1.6-0.2c-3.4,0-5.8,2.6-6.5,6.2c-0.1,0.7-0.2,1.4-0.2,2.2V51h-4.8V32.8z"/><path fill="#FFFFFF" d="M173.5,12.3h4.8V51h-4.8V12.3z"/><path fill="#FFFFFF" d="M206.5,12.3v31.9c0,2.3,0.1,5,0.2,6.8h-4.3l-0.2-4.6H202c-1.5,2.9-4.7,5.2-9,5.2 c-6.4,0-11.3-5.4-11.3-13.4c-0.1-8.8,5.4-14.2,11.9-14.2c4,0,6.8,1.9,8,4h0.1V12.3H206.5z M201.7,35.4c0-0.6-0.1-1.4-0.2-2 c-0.7-3.1-3.3-5.6-6.9-5.6c-5,0-7.9,4.4-7.9,10.2c0,5.3,2.6,9.8,7.8,9.8c3.2,0,6.2-2.1,7.1-5.7c0.2-0.7,0.2-1.3,0.2-2.1V35.4z"/><path fill="#FFFFFF" d="M42.8,64c0.1,1.6-1.1,2.9-3.1,2.9c-1.7,0-2.9-1.3-2.9-2.9c0-1.7,1.3-3,3-3C41.7,61,42.8,62.3,42.8,64z M37.4,97.8V71.4h4.8v26.4H37.4z"/><path fill="#FFFFFF" d="M47.5,78.6c0-2.7-0.1-5-0.2-7.1h4.3l0.3,4.4h0.1c1.3-2.5,4.4-5,8.8-5c3.7,0,9.4,2.2,9.4,11.2v15.8h-4.8 V82.6c0-4.3-1.6-7.8-6.1-7.8c-3.2,0-5.6,2.2-6.5,4.9c-0.2,0.6-0.3,1.4-0.3,2.2v15.9h-4.8V78.6z"/><path fill="#FFFFFF" d="M84,61.6c2.9-0.4,6.3-0.8,10.1-0.8c6.8,0,11.7,1.6,14.9,4.6c3.3,3,5.2,7.3,5.2,13.2c0,6-1.9,10.9-5.3,14.3 c-3.4,3.4-9.1,5.3-16.3,5.3c-3.4,0-6.2-0.2-8.6-0.4V61.6z M88.8,94.1c1.2,0.2,3,0.3,4.8,0.3c10.2,0,15.7-5.7,15.7-15.6 c0.1-8.7-4.9-14.2-14.9-14.2c-2.5,0-4.3,0.2-5.6,0.5V94.1z"/><path fill="#FFFFFF" d="M132.1,97.8l-0.4-3.3h-0.2c-1.5,2.1-4.3,3.9-8.1,3.9c-5.4,0-8.1-3.8-8.1-7.6c0-6.4,5.7-9.9,15.9-9.8v-0.5 c0-2.2-0.6-6.1-6-6.1c-2.5,0-5,0.8-6.9,2l-1.1-3.2c2.2-1.4,5.4-2.3,8.7-2.3c8.1,0,10.1,5.5,10.1,10.8v9.9c0,2.3,0.1,4.5,0.4,6.3 H132.1z M131.4,84.4c-5.3-0.1-11.2,0.8-11.2,5.9c0,3.1,2.1,4.6,4.5,4.6c3.4,0,5.6-2.2,6.4-4.4c0.2-0.5,0.3-1,0.3-1.5V84.4z"/><path fill="#FFFFFF" d="M146.6,63.9v7.6h6.9v3.7h-6.9v14.2c0,3.3,0.9,5.1,3.6,5.1c1.3,0,2.2-0.2,2.8-0.3l0.2,3.6 c-0.9,0.4-2.4,0.7-4.3,0.7c-2.2,0-4-0.7-5.2-2c-1.4-1.4-1.9-3.8-1.9-6.9V75.1h-4.1v-3.7h4.1v-6.3L146.6,63.9z"/><path fill="#FFFFFF" d="M171.4,97.8l-0.4-3.3h-0.2c-1.5,2.1-4.3,3.9-8.1,3.9c-5.4,0-8.1-3.8-8.1-7.6c0-6.4,5.7-9.9,15.9-9.8v-0.5 c0-2.2-0.6-6.1-6-6.1c-2.5,0-5,0.8-6.9,2l-1.1-3.2c2.2-1.4,5.4-2.3,8.7-2.3c8.1,0,10.1,5.5,10.1,10.8v9.9c0,2.3,0.1,4.5,0.4,6.3 H171.4z M170.7,84.4c-5.3-0.1-11.2,0.8-11.2,5.9c0,3.1,2.1,4.6,4.5,4.6c3.4,0,5.6-2.2,6.4-4.4c0.2-0.5,0.3-1,0.3-1.5V84.4z"/></g></g></a></g><a href="https://ourworldindata.org/grapher/global-freshwater-use-over-the-long-run" target="_blank"><text font-size="27.00" x="15.0" y="36.6" fill="#555"><tspan x="15" y="36.6">Global freshwater use over the long-run</tspan></text></a><text font-size="14.40" x="15.0" y="55.5" fill="#666"><tspan x="15" y="55.519999999999996">Global freshwater withdrawals for agriculture, industry and domestic uses since 1900, measured in cubic metres</tspan><tspan x="15" y="71.36">(m³) per year.</tspan></text></g><g class="StackedArea"><defs><clipPath id="boundsClip-746"><rect x="115.58" y="0" width="820" height="925.2"></rect></clipPath></defs><g class="AxisBoxView"><g class="HorizontalAxis"><text x="115.6" y="556.5" fill="#666" text-anchor="middle" font-size="16.2">1901</text><text x="226.9" y="556.5" fill="#666" text-anchor="middle" font-size="16.2">1920</text><text x="344" y="556.5" fill="#666" text-anchor="middle" font-size="16.2">1940</text><text x="461.1" y="556.5" fill="#666" text-anchor="middle" font-size="16.2">1960</text><text x="578.3" y="556.5" fill="#666" text-anchor="middle" font-size="16.2">1980</text><text x="695.4" y="556.5" fill="#666" text-anchor="middle" font-size="16.2">2000</text><text x="777.4" y="556.5" fill="#666" text-anchor="middle" font-size="16.2">2014</text></g><g class="VerticalAxis"><text x="110.58" y="535.3" fill="#666" dominant-baseline="middle" text-anchor="end" font-size="16.2">0 m³</text><text x="110.58" y="481.1" fill="#666" dominant-baseline="middle" text-anchor="end" font-size="16.2">500 billion m³</text><text x="110.58" y="426.9" fill="#666" dominant-baseline="middle" text-anchor="end" font-size="16.2">1 trillion m³</text><text x="110.58" y="372.7" fill="#666" dominant-baseline="middle" text-anchor="end" font-size="16.2">1.5 trillion m³</text><text x="110.58" y="318.6" fill="#666" dominant-baseline="middle" text-anchor="end" font-size="16.2">2 trillion m³</text><text x="110.58" y="264.4" fill="#666" dominant-baseline="middle" text-anchor="end" font-size="16.2">2.5 trillion m³</text><text x="110.58" y="210.2" fill="#666" dominant-baseline="middle" text-anchor="end" font-size="16.2">3 trillion m³</text><text x="110.58" y="156" fill="#666" dominant-baseline="middle" text-anchor="end" font-size="16.2">3.5 trillion m³</text><text x="110.58" y="101.8" fill="#666" dominant-baseline="middle" text-anchor="end" font-size="16.2">4 trillion m³</text></g><g class="AxisGridLines"><line x1="115.58" y1="535.3" x2="777.42" y2="535.3" stroke="#ccc"></line><line x1="115.58" y1="481.1" x2="777.42" y2="481.1" stroke="#ddd" stroke-dasharray="3,2"></line><line x1="115.58" y1="426.9" x2="777.42" y2="426.9" stroke="#ddd" stroke-dasharray="3,2"></line><line x1="115.58" y1="372.7" x2="777.42" y2="372.7" stroke="#ddd" stroke-dasharray="3,2"></line><line x1="115.58" y1="318.6" x2="777.42" y2="318.6" stroke="#ddd" stroke-dasharray="3,2"></line><line x1="115.58" y1="264.4" x2="777.42" y2="264.4" stroke="#ddd" stroke-dasharray="3,2"></line><line x1="115.58" y1="210.2" x2="777.42" y2="210.2" stroke="#ddd" stroke-dasharray="3,2"></line><line x1="115.58" y1="156" x2="777.42" y2="156" stroke="#ddd" stroke-dasharray="3,2"></line><line x1="115.58" y1="101.8" x2="777.42" y2="101.8" stroke="#ddd" stroke-dasharray="3,2"></line></g><g class="AxisGridLines"><line x1="226.9" y1="535.30" x2="226.9" y2="93.90" stroke="#ddd" stroke-dasharray="3,2"></line><line x1="344" y1="535.30" x2="344" y2="93.90" stroke="#ddd" stroke-dasharray="3,2"></line><line x1="461.1" y1="535.30" x2="461.1" y2="93.90" stroke="#ddd" stroke-dasharray="3,2"></line><line x1="578.3" y1="535.30" x2="578.3" y2="93.90" stroke="#ddd" stroke-dasharray="3,2"></line><line x1="695.4" y1="535.30" x2="695.4" y2="93.90" stroke="#ddd" stroke-dasharray="3,2"></line></g></g><g clip-path="url(#boundsClip-746)"><g class="HeightedLegend clickable"><g class="legendMark"><rect x="782.4159999999999" y="312.1" width="52.584" height="14.4" fill="#fff" opacity="0"></rect><rect x="782.4159999999999" y="318.05" width="10" height="2.5" fill="#3360a9"></rect><text font-size="14.40" x="797.4" y="323.6" fill="#333"><tspan x="797.4159999999999" y="323.62">World</tspan></text></g></g><g class="Areas"><rect x="115.58" y="93.9" width="661.8359999999999" height="441.4000000000001" opacity="0" fill="rgba(255,255,255,0)"></rect><path stroke-linecap="round" d="M115.6 462.5L121.4 461L127.3 464.3L133.2 459.5L139 459.3L144.9 459.8L150.7 456.1L156.6 457.3L162.4 456.3L168.3 457.1L174.1 454.5L180 452.2L185.9 446.9L191.7 450.1L197.6 449.1L203.4 450L209.3 451.2L215.1 441.4L221 444.7L226.9 439.4L232.7 443.9L238.6 440.8L244.4 440.9L250.3 438.9L256.1 435.1L262 438L267.9 433.2L273.7 432.5L279.6 430L285.4 431.9L291.3 434.1L297.1 429.6L303 432.6L308.9 426.8L314.7 425L320.6 423.7L326.4 422.9L332.3 419.5L338.1 415.9L344 415L349.9 413.1L355.7 414L361.6 411.9L367.4 411.5L373.3 411.6L379.1 407.7L385 407.6L390.9 407L396.7 405.9L402.6 402.4L408.4 391.4L414.3 385.8L420.1 386.4L426 386.5L431.9 380.9L437.7 377.4L443.6 365.4L449.4 364.4L455.3 357.7L461.1 345.4L467 344L472.9 336.3L478.7 327.3L484.6 324.3L490.4 308.3L496.3 301.7L502.1 304.1L508 280.7L513.9 279.7L519.7 279.3L525.6 271.3L531.4 259.2L537.3 252.8L543.1 240L549 249.4L554.9 238.4L560.7 232.9L566.6 211.1L572.4 198.2L578.3 202.2L584.1 204.3L590 202.9L595.9 206.5L601.7 197.6L607.6 196.2L613.4 184.9L619.3 180.8L625.1 173.5L631 170.2L636.8 175.4L642.7 164.9L648.6 175.6L654.4 171.4L660.3 159.9L666.1 164.6L672 173.5L677.8 162.3L683.7 156.5L689.6 139.6L695.4 125L701.3 116.8L707.1 122.7L713 131.8L718.8 117.7L724.7 120.5L730.6 102.7L736.4 101.4L742.3 107.4L748.1 93.9L754 115.7L777.4 103.4L777.4159999999999 535.3000000000001L115.58 535.3000000000001" fill="#3360a9" fill-opacity="0.7" class="World_0-area"></path><path stroke-linecap="round" d="M115.6 462.5L121.4 461L127.3 464.3L133.2 459.5L139 459.3L144.9 459.8L150.7 456.1L156.6 457.3L162.4 456.3L168.3 457.1L174.1 454.5L180 452.2L185.9 446.9L191.7 450.1L197.6 449.1L203.4 450L209.3 451.2L215.1 441.4L221 444.7L226.9 439.4L232.7 443.9L238.6 440.8L244.4 440.9L250.3 438.9L256.1 435.1L262 438L267.9 433.2L273.7 432.5L279.6 430L285.4 431.9L291.3 434.1L297.1 429.6L303 432.6L308.9 426.8L314.7 425L320.6 423.7L326.4 422.9L332.3 419.5L338.1 415.9L344 415L349.9 413.1L355.7 414L361.6 411.9L367.4 411.5L373.3 411.6L379.1 407.7L385 407.6L390.9 407L396.7 405.9L402.6 402.4L408.4 391.4L414.3 385.8L420.1 386.4L426 386.5L431.9 380.9L437.7 377.4L443.6 365.4L449.4 364.4L455.3 357.7L461.1 345.4L467 344L472.9 336.3L478.7 327.3L484.6 324.3L490.4 308.3L496.3 301.7L502.1 304.1L508 280.7L513.9 279.7L519.7 279.3L525.6 271.3L531.4 259.2L537.3 252.8L543.1 240L549 249.4L554.9 238.4L560.7 232.9L566.6 211.1L572.4 198.2L578.3 202.2L584.1 204.3L590 202.9L595.9 206.5L601.7 197.6L607.6 196.2L613.4 184.9L619.3 180.8L625.1 173.5L631 170.2L636.8 175.4L642.7 164.9L648.6 175.6L654.4 171.4L660.3 159.9L666.1 164.6L672 173.5L677.8 162.3L683.7 156.5L689.6 139.6L695.4 125L701.3 116.8L707.1 122.7L713 131.8L718.8 117.7L724.7 120.5L730.6 102.7L736.4 101.4L742.3 107.4L748.1 93.9L754 115.7L777.4 103.4" stroke="rgb(43, 80, 141)" stroke-opacity="0.7" stroke-width="0.5" fill="none" class="World_0-border"></path></g></g></g><g style="fill: #777;" class="SourcesFooter"><g style="fill: #777;" class="clickable"><text font-size="12.60" x="15.0" y="581.6"><tspan x="15" y="581.58">Source: Global International Geosphere-Biosphere Programme (IGB)</tspan></text></g><text font-size="12.60" x="449.7" y="581.6"><tspan x="449.692" y="581.58"><a target='_blank' style='fill: #777;' href='https://ourworldindata.org/water-access-resources-sanitation/'>OurWorldInData.org/water-access-resources-sanitation/</a> • <a style="fill: #777;" href="http://creativecommons.org/licenses/by-sa/4.0/deed.en_US" target="_blank">CC BY-SA</a></tspan></text></g></g></svg>
